Newaita/actions/16/mail-mark-important.svg

<?xml version="1.0" encoding="UTF-8"?>
<svg xmlns="http://www.w3.org/2000/svg" xmlns:xlink="http://www.w3.org/1999/xlink" width="16pt" height="16pt" viewBox="0 0 16 16" version="1.1">
<g id="surface1">
<path style=" stroke:none;fill-rule:nonzero;fill:rgb(25.882354%,25.882354%,25.882354%);fill-opacity:1;" d="M 1.984375 2.109375 C 1.25 2.109375 0.660156 2.699219 0.660156 3.433594 L 0.660156 13.023438 C 0.660156 13.757812 1.25 14.347656 1.984375 14.347656 L 9.59375 14.347656 L 9.59375 13.355469 L 2.316406 13.355469 C 1.949219 13.355469 1.652344 13.058594 1.652344 12.695312 L 1.652344 3.867188 L 7.558594 9.152344 C 7.773438 9.34375 8.101562 9.34375 8.320312 9.152344 L 14.222656 3.867188 L 14.222656 8.726562 L 15.214844 8.726562 L 15.214844 3.433594 C 15.214844 2.699219 14.625 2.109375 13.890625 2.109375 Z M 2.511719 3.101562 L 13.367188 3.101562 L 7.9375 7.957031 Z M 2.511719 3.101562 "/>
<path style=" stroke:none;fill-rule:nonzero;fill:rgb(93.725491%,32.549021%,31.37255%);fill-opacity:1;" d="M 12.554688 9.054688 L 12.582031 9.054688 C 12.941406 9.054688 13.230469 9.351562 13.230469 9.71875 L 13.230469 11.703125 C 13.230469 12.066406 12.941406 12.363281 12.582031 12.363281 L 12.554688 12.363281 C 12.199219 12.363281 11.90625 12.066406 11.90625 11.703125 L 11.90625 9.71875 C 11.90625 9.351562 12.199219 9.054688 12.554688 9.054688 Z M 12.554688 9.054688 "/>
<path style=" stroke:none;fill-rule:nonzero;fill:rgb(93.725491%,32.549021%,31.37255%);fill-opacity:1;" d="M 12.570312 13.023438 C 12.933594 13.023438 13.230469 13.320312 13.230469 13.6875 C 13.230469 14.050781 12.933594 14.347656 12.570312 14.347656 C 12.203125 14.347656 11.90625 14.050781 11.90625 13.6875 C 11.90625 13.320312 12.203125 13.023438 12.570312 13.023438 Z M 12.570312 13.023438 "/>
</g>
</svg>

<svg xmlns="http://www.w3.org/2000/svg" width="16pt" height="16pt" viewBox="0 0 16 16"><path d="M1.984 2.11A1.32 1.32 0 0 0 .66 3.433v9.59c0 .734.59 1.324 1.324 1.324h7.61v-.993H2.316a.663.663 0 0 1-.664-.66V3.867L7.56 9.152a.577.577 0 0 0 .761 0l5.903-5.285v4.86h.992V3.434a1.32 1.32 0 0 0-1.324-1.325zm.528.992h10.855l-5.43 4.855zm0 0" fill="#424242"/><path d="M12.555 9.055h.027c.36 0 .648.297.648.664v1.984c0 .363-.289.66-.648.66h-.027a.657.657 0 0 1-.649-.66V9.72c0-.367.293-.664.649-.664zm0 0M12.57 13.023a.663.663 0 1 1-.005 1.326.663.663 0 0 1 .005-1.326zm0 0" fill="#ef5350"/></svg>
